X:130
T: Da Mirrie Boys o Greenland
C: 'Original' version w/Kate's chords
M:4/4
K:D
L:1/8
|: "D" ABde fd f2 | "A" ue<e (ce) Aece | "D" ABde fd f2 | "A7" (uge)ce "D" d2 d2 :|
|: "D" vfg vf<(e fg)af | "A7" gf e<c efge | "D" fg f<(ue fg)af | "A7" gece "D" d2 d2 :|

% ...and here should be exact same,  minus slurs and all eighth-notes,
% simplified for contra dance:
